dist/media/images/logo.svg

<svg xmlns="http://www.w3.org/2000/svg" width="55" height="55" viewBox="0 0 55 55" fill="none">
<path d="M42.4847 50.19C42.3528 50.204 42.2062 50.218 42.0743 50.218C32.3728 50.218 22.6565 50.218 12.955 50.218C12.8231 50.218 12.6765 50.218 12.5153 50.218C12.5153 51.8307 12.5153 53.4013 12.5153 55C10.83 55 9.18865 55 7.51799 55C7.51799 53.4153 7.51799 51.8447 7.51799 50.232C9.15934 50.232 10.8007 50.232 12.4714 50.232C12.4714 48.6333 12.4714 47.0627 12.4714 45.4781C12.3834 45.4781 12.2955 45.464 12.2076 45.464C9.90674 45.464 7.59126 45.464 5.29043 45.464C5.2025 45.464 5.11457 45.4921 5.02665 45.5061C5.01199 45.3799 4.98268 45.2677 4.98268 45.1415C4.98268 42.9819 4.98268 40.8223 4.98268 38.6627C4.98268 38.5505 4.98268 38.4383 4.98268 38.2981C3.31202 38.2981 1.67066 38.2981 0 38.2981C0 31.104 0 23.9521 0 16.744C1.64135 16.744 3.29736 16.744 4.98268 16.744C4.98268 11.1346 4.98268 5.58134 4.98268 0C7.48868 0 9.96536 0 12.4714 0C12.4714 1.58465 12.4714 3.15528 12.4714 4.76798C14.1567 4.76798 15.7834 4.76798 17.4687 4.76798C17.4687 6.36665 17.4687 7.93728 17.4687 9.53595C24.1513 9.53595 30.79 9.53595 37.4727 9.53595C37.4727 7.96532 37.4727 6.38067 37.4727 4.782C39.158 4.782 40.7994 4.782 42.4847 4.782C42.4847 3.1693 42.4847 1.59867 42.4847 0C45.0053 0 47.482 0 49.988 0C49.988 5.56731 49.988 11.1346 49.988 16.73C51.6733 16.73 53.3293 16.73 55 16.73C55 23.938 55 31.09 55 38.284C53.344 38.284 51.7026 38.284 50.0027 38.284C50.0027 38.4243 50.0027 38.5365 50.0027 38.6346C50.0027 40.8083 50.0027 42.9679 50.0027 45.1415C50.0027 45.2677 49.988 45.3799 49.9734 45.5061C49.9001 45.4921 49.8268 45.464 49.7389 45.464C47.4087 45.464 45.064 45.464 42.7338 45.464C42.6605 45.464 42.6019 45.4781 42.4993 45.4921C42.4993 45.6043 42.4993 45.7165 42.4993 45.8287C42.4993 47.1749 42.4993 48.5352 42.4993 49.8814C42.4993 49.9796 42.4847 50.0918 42.4847 50.19ZM53.7983 18.8896C36.2417 18.8896 18.7144 18.8896 1.18705 18.8896C1.18705 19.7731 1.18705 20.6425 1.18705 21.526C1.69997 21.526 2.18359 21.512 2.6672 21.526C3.07754 21.54 3.20943 21.6662 3.19478 22.0449C3.19478 23.5454 3.19478 25.0459 3.18012 26.5604C3.18012 26.6726 3.18012 26.7848 3.18012 26.911C3.32667 26.911 3.42926 26.911 3.5465 26.911C4.20597 26.911 4.8801 26.897 5.53957 26.897C5.93525 26.897 6.06715 27.0232 6.06715 27.3878C6.06715 27.9347 6.06715 28.4957 6.05249 29.0426C6.05249 29.1968 6.05249 29.3511 6.05249 29.5194C6.16973 29.5194 6.24301 29.5334 6.30163 29.5334C7.06368 29.5334 7.81108 29.5334 8.57314 29.5334C9.08607 29.5334 9.23261 29.6736 9.2033 30.1645C9.2033 30.2346 9.18865 30.3187 9.18865 30.3888C9.18865 31.0059 9.18865 31.6229 9.18865 32.254C12.6912 32.254 16.1644 32.254 19.6523 32.254C19.6523 31.6089 19.6523 30.9638 19.6523 30.3327C19.6523 29.5194 19.6523 29.5194 20.5169 29.5474C21.0885 29.5614 21.66 29.5474 22.2462 29.5474C22.2462 28.8182 22.2462 28.117 22.2462 27.4299C22.2462 27.0372 22.3634 26.911 22.7738 26.911C23.4479 26.911 24.122 26.925 24.7962 26.9391C25.3531 26.9531 25.4703 26.8269 25.4703 26.294C25.4556 24.8636 25.441 23.4332 25.441 22.0168C25.441 21.6522 25.5582 21.54 25.9392 21.54C26.628 21.54 27.3168 21.5541 27.9909 21.54C28.6211 21.54 28.6651 21.5821 28.6651 22.1851C28.6651 23.6435 28.6651 25.116 28.6504 26.5745C28.6504 26.6726 28.6504 26.7708 28.6504 26.911C29.3392 26.911 29.9987 26.925 30.6581 26.911C31.5374 26.897 31.5814 26.9391 31.5667 27.7945C31.5521 28.3835 31.5667 28.9725 31.5667 29.5895C32.6219 29.5895 33.6624 29.5895 34.7322 29.5895C34.7322 30.501 34.7322 31.3705 34.7322 32.254C38.2201 32.254 41.664 32.254 45.1372 32.254C45.1372 31.5107 45.1372 30.7955 45.1372 30.0663C45.1372 29.6596 45.2545 29.5474 45.6795 29.5474C46.1777 29.5614 46.676 29.5614 47.1743 29.5614C47.3648 29.5614 47.5553 29.5614 47.7605 29.5614C47.7605 28.8182 47.7605 28.117 47.7605 27.4299C47.7605 27.0372 47.8777 26.911 48.288 26.911C48.9915 26.911 49.6949 26.911 50.3983 26.925C50.882 26.925 50.9699 26.8549 50.9699 26.3921C50.9699 24.8776 50.9699 23.3631 50.9552 21.8485C50.9552 21.7504 50.9552 21.6522 50.9552 21.526C51.9078 21.526 52.8164 21.526 53.7397 21.526C53.7983 20.6425 53.7983 19.7731 53.7983 18.8896ZM25.016 38.256C25.016 40.668 25.016 43.038 25.016 45.422C26.6867 45.422 28.3427 45.422 30.0133 45.422C30.0133 43.024 30.0133 40.654 30.0133 38.256C30.8487 38.256 31.6693 38.256 32.49 38.256C32.49 36.6573 32.49 35.0727 32.49 33.488C29.1633 33.488 25.8513 33.488 22.5246 33.488C22.5246 35.0867 22.5246 36.6713 22.5246 38.256C22.9496 38.256 23.3453 38.256 23.741 38.256C24.1513 38.256 24.547 38.256 25.016 38.256Z" fill="var(--primary)"/>
<path d="M42.4697 50.204C44.0232 50.204 45.5766 50.218 47.1153 50.218C47.2326 50.218 47.3498 50.218 47.4817 50.218C47.4817 51.8307 47.4817 53.4013 47.4817 55C45.8257 55 44.1697 55 42.4697 55C42.4844 53.3873 42.4844 51.7886 42.4697 50.204C42.4844 50.19 42.4697 50.204 42.4697 50.204Z" fill="var(--primary)"/>
<path d="M5.02664 45.4779C5.01199 45.5761 4.99733 45.6883 4.99733 45.7864C4.99733 47.1467 4.99733 48.507 4.99733 49.8673C4.99733 49.9654 4.99733 50.0776 4.99733 50.2038C3.31202 50.2038 1.67066 50.2038 0 50.2038C0 48.6192 0 47.0486 0 45.4639C0.102585 45.4639 0.190514 45.4499 0.278444 45.4499C1.75859 45.4499 3.23874 45.4499 4.71889 45.4499C4.82148 45.4359 4.92406 45.4779 5.02664 45.4779C5.02664 45.492 5.02664 45.4779 5.02664 45.4779Z" fill="var(--primary)"/>
<path d="M49.9736 45.492C50.0323 45.478 50.0909 45.45 50.1348 45.45C51.7469 45.45 53.3589 45.45 54.9856 45.45C54.9856 47.0486 54.9856 48.6193 54.9856 50.2179C53.3296 50.2179 51.6883 50.2179 50.0029 50.2179C50.0029 50.1057 50.0029 50.0076 50.0029 49.9094C50.0029 48.5351 50.0029 47.1748 50.0029 45.8005C50.0029 45.6883 49.9883 45.5902 49.9736 45.492C49.9736 45.478 49.9736 45.492 49.9736 45.492Z" fill="var(--primary)"/>
<path d="M10.4488 24.5692C11.3281 24.5692 12.1781 24.5692 13.0134 24.5692C13.8488 24.5552 13.8488 24.5552 13.8488 25.3686C13.8488 26.0978 13.8488 26.827 13.8488 27.5703C13.8488 27.9629 13.8048 28.019 13.3945 28.019C12.5445 28.019 11.6798 28.019 10.8298 28.019C10.4488 28.019 10.3755 27.9489 10.3755 27.5843C10.3755 26.7709 10.3755 25.9435 10.3755 25.1302C10.3755 24.7515 10.3023 24.6814 9.90658 24.6814C9.11521 24.6814 8.3385 24.6814 7.54714 24.6814C7.06352 24.6814 6.96094 24.5973 6.96094 24.1485C6.96094 23.3352 6.96094 22.5078 6.96094 21.6944C6.96094 21.3018 7.06352 21.2036 7.47386 21.2036C8.30919 21.2036 9.14452 21.2036 9.97986 21.2036C10.3316 21.2036 10.4342 21.3018 10.4342 21.6524C10.4342 22.5078 10.4342 23.3632 10.4195 24.2187C10.4488 24.3168 10.4488 24.415 10.4488 24.5692Z" fill="var(--primary)"/>
<path d="M36.1099 20.8529C36.1099 21.9607 36.1099 23.0546 36.1099 24.1765C37.2383 24.1765 38.3521 24.1765 39.4659 24.1765C39.4659 25.3264 39.4659 26.4202 39.4659 27.5281C38.3375 27.5281 37.2237 27.5281 36.0953 27.5281C36.0953 26.4342 36.0953 25.3404 36.0953 24.2185C34.9522 24.2185 33.8237 24.2185 32.6953 24.2185C32.6953 23.0826 32.6953 21.9748 32.6953 20.8389C33.8237 20.8529 34.9375 20.8529 36.1099 20.8529Z" fill="var(--primary)"/>
</svg>

<svg xmlns="http://www.w3.org/2000/svg" width="55" height="55" fill="none"><path d="M42.485 50.19a4.04 4.04 0 01-.41.028H12.514V55H7.518v-4.768h4.953v-4.754c-.088 0-.175-.014-.263-.014H5.29c-.088 0-.175.028-.263.042-.015-.126-.044-.238-.044-.364v-6.844H0V16.744h4.983V0h7.488v4.768h4.998v4.768h20.004V4.782h5.012V0h7.503v16.73H55v21.554h-4.997v6.858c0 .126-.015.238-.03.364-.073-.014-.146-.042-.234-.042h-7.005c-.074 0-.132.014-.235.028v4.389c0 .099-.014.21-.014.309zm11.313-31.3H1.187v2.636c.513 0 .997-.014 1.48 0 .41.014.542.14.528.519 0 1.5 0 3-.015 4.515v.351h.366c.66 0 1.334-.014 1.994-.014.395 0 .527.126.527.49 0 .548 0 1.109-.015 1.656v.476c.118 0 .191.014.25.014h2.271c.513 0 .66.14.63.631 0 .07-.014.155-.014.225v1.865h10.463v-1.921c0-.814 0-.814.865-.786.572.014 1.143 0 1.73 0V27.43c0-.393.116-.519.527-.519.674 0 1.348.014 2.022.028.557.014.674-.112.674-.645-.014-1.43-.029-2.86-.029-4.277 0-.365.117-.477.498-.477.689 0 1.378.014 2.052 0 .63 0 .674.042.674.645 0 1.459 0 2.931-.015 4.39v.336c.69 0 1.349.014 2.008 0 .88-.014.923.028.909.883-.015.59 0 1.178 0 1.796h3.165v2.664h10.405v-2.188c0-.406.117-.519.542-.519.499.014.997.014 1.495.014h.587V27.43c0-.393.117-.519.527-.519.704 0 1.407 0 2.11.014.484 0 .572-.07.572-.533 0-1.514 0-3.029-.015-4.543v-.323h2.785c.058-.884.058-1.753.058-2.636zM25.016 38.256v7.166h4.997v-7.166h2.477v-4.768h-9.965v4.768h2.491zM42.47 50.204c1.553 0 3.107.014 4.645.014h.367V55H42.47a260.79 260.79 0 000-4.796c.014-.014 0 0 0 0z" fill="var(--primary)"/><path d="M5.027 45.478a2.14 2.14 0 00-.03.308v4.418H0v-4.74c.103 0 .19-.014.278-.014h4.44c.103-.014.206.028.309.028 0 .014 0 0 0 0zm44.947.014c.058-.014.117-.042.16-.042h4.852v4.768h-4.983v-4.417c0-.113-.015-.21-.03-.309 0-.014 0 0 0 0zM10.449 24.57h2.564c.836-.015.836-.015.836.799v2.201c0 .393-.044.449-.454.449H10.83c-.381 0-.454-.07-.454-.435V25.13c0-.378-.074-.449-.47-.449H7.548c-.483 0-.586-.084-.586-.533v-2.454c0-.392.103-.49.513-.49H9.98c.352 0 .454.098.454.448 0 .856 0 1.711-.014 2.567.029.098.029.196.029.35zm25.661-3.717v3.323h3.356v3.352h-3.37v-3.31h-3.4v-3.38c1.128.015 2.242.015 3.414.015z" fill="var(--primary)"/></svg>
